X:1
T:Ghy edel jonghe gheesten
T:Ghy edel jonghe gheesten
T:anonymus
C:anonymus
%%score [ 1 [ 2 3 ] 4 ]
L:1/8
Q:1/4=120
M:2/2
K:C
V:1 treble nm="Soprano" snm="S"
V:2 treble-8 nm="Tenor 1" snm="T 1"
V:3 treble-8 nm="Tenor 2" snm="T 2"
V:4 bass nm="Bass" snm="B"
V:1
 z4 z2 A2 | A2 B2 c3 B/A/ | G2 A3 G G2- | G2 F2 G4 | z2 C2 DD E2 | F2 F2 E2 G2 | AA c2 c2 B2 | %7
w: Ghy|e- del jon- * *|* ghe _ ghees-|* * ten,|ghe- sel- le- kens|van der lucht, ghe-|sel- le- kens van der|
 c4 z4 | z4 z2 c2 | c3 c c2 d2 | e4 d2 cc | B2 A2 A2 G2 | A4 z2 G2 | A2 B2 c3 B/A/ | G2 A3 G G2- | %15
w: lucht,|dryft|a- mou- reu- se|fees- ten, al en|is- ser ghe- nen|bucht, al|sout u na- * *|maels rou- * *|
 G2 F2 G4 | z8 | z4 z2 G2 | A2 c2 c2 B2 | c8 | z8 | z8 | z2 B2 c3 c | c2 c2 BAGF | E2 c2 B2 A2 | %25
w: * * wen,||maect|daer af gheen ghe-|lach,|||be- dryft so-|laes met vrou- * * *|wen als 'tu ghe-|
"^#" A2 G2 A2 c2 | c3 c c2 c2 | e4 d2 c2 |"^#" B2 A2 A2 G2 | A4 z2 G2 | A2 B2 c2 z2 | G2 A2 B2 c2 | %32
w: bue- ren mach, be-|dryft so- laes met|vrou- wen als|'tu ghe- bue- ren|mach, son-|der ver- drach|syt nacht en dach|
 z2 G2 A2 B2 | c2 z2 c4 | c2 d2 edcB | A2 c2 B2 A2 | A2 G2 A4 | z8 | z8 | z8 | c4 c2 d2 | %41
w: om u be-|jacht, maect|gheen ghe- lach, _ _ _|_ na- tu- re|geeft ver- drach,||||maect gheen ghe-|
 edcB A2 c2 | B2 A2 A2 G2 | A8 |] %44
w: lach, _ _ _ _ na-|tu- re geeft ver-|drach.|
V:2
 e2 e2 d2 e2- | ef g2 f2 e2- | ed d4 c2 | d4 B2 c2- | cBAG F2 G2 | G2 F2 G2 G2 | cc e2 d2 d2 | %7
w: Ghy e- del jon-|* * * ghe ghees-||ten, ghe- sel-|* * * * le- kens|van der lucht, ghe-|sel- le- kens van der|
 c4 z4 | z4 z2 c2 | c3 c c2 B2 | G3 A B2 c2 | d2 f2 e2 e2 | c4 z4 | z4 c2 d2 | e2 f2 d2 e2 | %15
w: lucht,|dryft|a- mou- reu- se|fees- ten al en|is- ser ghe- nen|bucht,|al sout|na- maels rou- *|
 d4 B4 | z2 c2 B2 A2 | f2 f2 e2 z e | f2 e2 d2 d2 | c8 | z8 | z8 | z2 d2 c3 d | e2 f2 gfed | %24
w: * wen,|maect daer af|gheen ghe- lach, maect|daer af ghen ghe-|lach|||be- dryft so-|laes met vrou- * * *|
 c2 A2 G2 c2 | B2 B2 A2 f2 | f3 f f2 f2 | e4 f2 e2 | e2 d2 e2 e2 | c4 z2 e2 | f2 g2 c2 z2 | %31
w: wen als 'tu ghe-|bue- ren mach, be-|dryft so- laes met|vrou- wen als|'tu ghe- bue- en|mach, son-|der ver- drach|
 e2 f2 g2 c2 | z2 e2 f2 g2 | c2 z2 e4 | e2 d2 cded/e/ | f2 e2 d2 c2 | B2 B2 A4 | z8 | z8 | z8 | %40
w: syt nacht en dach|om u be-|jacht, maect|gheen ghe- lach, _ _ _ _|_ na- tu- re|geeft ver- drach,||||
 e4 e2 d2 | cded/e/ f2 e2 | e2 d2 e2 e2 |"^#" c8 |] %44
w: maect gheen ghe-|lach, _ _ _ _ _ na-|tu- re geeft ver-|drach.|
V:3
 A2 A2 B2 c2- | cB/A/ G2 c4 | B2 A2 B2 G2 | A4 G4 | z2 A2 AB c2 | c2 B2 c4- | c4 z2 G2 | %7
w: Ghy e- del jon-||ghe ghees- * *|* ten,|ghe- sel- le- kens|van der lucht,|_ ghe-|
 AB c2 c2 B2 | c4 z2 A2 | e3 e e2 d2 | c4 d2 ee | d2 c2 B2 B2 | A4 z4 | z2 G2 A2 B2 | c2 A2 B2 c2 | %15
w: sel- le- kens van der|lucht, dryft|a- mou- reu- se|fees- ten al en|is- ser ghe- nen|bucht,|al sout na-|maels rou- * *|
 A4 G4 | z2 G2 G2 c2 | c2 B2 c4 | z8 | A2 A2 G2 AB | cd e3 d c2 | B2 c2 c2 A2 |"^#" A2 G2 A4- | %23
w: * wen,|maect daer af|gheen ghe- lach,||be- dryft so- laes- *|met _ vrou- * *|wen als 'tu ghe-|bue- ren mach,|
 A4 z4 | z8 | z4 z2 A2 | A3 A A2 A2 | c4 A2 A2 | G2 A2 B2 B2 | A4 z4 | z2 G2 A2 B2 | c2 z2 G2 A2 | %32
w: _||be-|dryft so- laes met|vrou- wen als|'tu ghe- bue- ren|mach,|son- der ver-|drach syt nacht|
 B2 c2 z2 G2 | A2 B2 c4 | z8 | z8 | z4 c4 | c2 d2 e3 d/c/ | d2 c2 B2 A2 |"^#" A2 G2 A4 | %40
w: en dach om|u be- jacht,|||maect|gheen ghe- lach _ _|_ na- tu- re|geeft ver- drach,|
 z2 A2 G2 G2 | cBAG F2 A2 | G2 A2 B2 B2 | A8 |] %44
w: maect gheen ghe-|lach, _ _ _ _ na-|tu- re geeft ver-|drach.|
V:4
 z4 z2 A,,2 | C,2 B,,2 A,,B,,C,D, | E,2 F,2 E,4 | D,4 G,,2 C,2 | F,3 E, D,2 C,2 | D,2 D,2 C,4- | %6
w: Ghy|e- del jon- * * *|* ghe ghees-|* ten, ghe-|sel- * le- kens|van der lucht,|
 C,4 z4 |"^#" F,2 F,F, E,2 D,2 | C,2 A,,2 z2 A,,2 | A,,3 A,, A,,2 B,,2 | C,4 G,2 C,C, | %11
w: _|ghe- sel- le- kens van-|der lucht, dryft|a- mou- reu- se|fees- ten al en|
 G,2 A,2 E,2 E,2 | A,,4 z4 | z8 | z4 z2 C,2 | D,2 D,2 E,3 F, | G,F,E,D, E,2 F,2 | D,2 D,2 C,4 | %18
w: is- ser ghe- nen|bucht,||al|sout u na- maels|rou- * wen maect daer af|gheen ghe- lach,|
 z8 | A,,2 C,4 C,2 | C,2 C,2 E,4 | D,2 A,,2 C,2 D,2 | B,,2 B,,2 A,,4- | A,,4 z4 | z8 | z4 z2 F,2 | %26
w: |be- dryft so-|laes met vrou-|wen als 'tu ghe-|bue- ren mach,|_||be-|
 F,3 F, F,2 F,2 | C,4 D,2 A,,2 | E,2 F,2 E,2 E,2 | A,,4 z4 | z2 G,2 F,2 D,2 | C,2 z2 G,2 F,2 | %32
w: dryft so- laes met|vrou- wen als|'tu ghe- bue- ren|mach,|son- der ver-|drach syt nacht|
 D,2 C,2 z2 G,2 | F,2 D,2 C,4 | z8 | z8 | z4 F,4 | E,2 D,2 C,3 B,,/A,,/ |"^#" G,,2 A,,2 B,,2 C,2 | %39
w: en dach om|u be- jacht,|||maect|gheen ghe- lach, _ _|_ na- tu- re|
 D,2 E,2 A,,4 | z2 A,,2 C,2 B,,2 | A,,B,,C,B,,/C,/ D,2 A,,2 | E,2 F,2 E,2 E,2 | A,,8 |] %44
w: geef ver- drach,|maect gheen ghe-|lach, _ _ _ _ _ na-|tu- re geeft ver-|drach.|

